!!!COM: Bach, Johann Sebastian
!!!CDT: 1685/3//-1750/7/28/
!!!OTL@@DE: Komm, Gott Schoepfer, heiliger Geist
!!!AGN: 4-Part Chorale
!!!SCT: BH 187
!!!SCT: BWV 370
!!!YEC: Copyright 1994, David Huron
!!!YEC: Changes/Additions 2001 by Craig Stuart Sapp
!!!YEN: United States of America
!!!SMA: 371 Bach Chorales, edited by Ludwig Erk, C.F. Peters
!!!PDT: 1850, 1865
!!!ONB: Harmony and Root analysis done manually
!!!ONB: Actual key is G Mixolydian 
**kern	**kern	**kern	**kern	**root	**harm
!bass	!tenor	!alto	!soprno	!	!
*Iorgan	*Iorgan	*Iorgan	*Iorgan	*Iorgan	*
*M4/4	*M4/4	*M4/4	*M4/4	*M4/4	*M4/4
*met(C)	*met(C)	*met(C)	*met(C)	*met(C)	*met(C)
*MM60	*MM60	*MM60	*MM60	*MM60	*MM60
*k[]	*k[]	*k[]	*k[]	*k[]	*k[]
*G:	*G:	*G:	*G:	*G:	*G:
4G	4B	8d	4g	4GG	I
.	.	8e	.	.	.
=1	=1	=1	=1	=1	=1
4F	4c	[4f	4a	4FF	-VII
4C	4c	8f]	4g	4CC	IV
.	.	[8e	.	.	.
4D	4A	8e]	4f	4DD	v
.	.	16d	.	.	.
.	.	16c	.	.	.
4E	8G	8B	4g	4EE	vi
.	16c	[8e	.	.	.
.	16B	.	.	.	.
=2	=2	=2	=2	=2	=2
4AA	8c	8e]	4cc	8AA	ii
.	8f	8c	.	8FF	-VIIb
4GG	4B	8g	4dd	4GG	I
.	.	8f	.	.	.
4C;	4G;	4e;	4cc;	4CC;	IV;
4F	4A	8c	4cc	4FF	-VII
.	.	8d	.	.	.
=3	=3	=3	=3	=3	=3
4E	8B	4e	4g	4EE	vi
.	8c	.	.	.	.
4D	4d	4f	4b	4BB	iiiob
4.C	4e	4g	4cc	4CC	IV
.	[4d	4g	4dd	4GG	I
8BB	.	.	.	.	.
=4	=4	=4	=4	=4	=4
4C	8d]	[4g	4ee	4CC	IV
.	16c	.	.	.	.
.	16B	.	.	.	.
4CC	8c	8g]	4ee	8CC	IV
.	8A	8f#	.	8FF#	vii7c
4GG;	4B;	4g;	4dd;	4GG;	I;
4G	4B	4g	4dd	4GG	I
!!linebreak: 2
=5	=5	=5	=5	=5	=5
4C	8c	4g	8ee	4CC	IV
.	8B	.	8dd	.	.
4E	4c	[4g	4cc	4CC	IVb
4F	4c	8g]	4a	4FF	-VII
.	.	[8f	.	.	.
4c	4c	8f]	4g	4CC	IV
.	.	8e	.	.	.
=6	=6	=6	=6	=6	=6
8G	4d	4g	4b	4GG	I
8F	.	.	.	.	.
4E	4e	4g	4cc#	4CC#	vii/v
4D;	4f;	4a;	4dd;	4DD;	v;
4E	4B	4e	4g	4EE	vi
=7	=7	=7	=7	=7	=7
8AA	4A	8e	4cc	4AA	ii
8BB	.	8d	.	.	.
4C	4A	[4e	4a	4AA	iib
4D	8A	8e]	4f	8DD	v
.	8B-	16d	.	8BB-	-IIIb
.	.	16e	.	.	.
4AA	4c	[4f	4a	4FF	-VIIb
=8	=8	=8	=8	=8	=8
4BBn	[4d	4f]	2g	4GG	I7b
4C	8d]	4e	.	4CC	IV
.	[8c	.	.	.	.
4GG;	8c]	4d;	4g;	4GG;	I;
.	8B;	.	.	.	.
==	==	==	==	==	==
*-	*-	*-	*-	*-	*-
!!chor2scor: -l 2 -s 0.6 -o %b.pmx
